X: 6741
T: Champion, The
R: jig
M: 6/8
K: Bminor
|:FBc dcB|fBc dcB|cAF FEF|fgf edc|
FBc dcB|fBc dcB|fgf f2e|1 dBB BAG:|2 dBB Bcd||
|:ABA GAG|FAd fdA|GAc ecA|FAd fdA|
ABA GAG|FAd fdA|GAc ecA|gfe d2B:|

